X: 471
T: Sheepskin and Beeswax (Reel)
B: good tune book
B: tunes
M:4/4
R: reel
Q: 1/4=100
K:Adorian
V:1 
|:A3G BAGB|AGAB gfef|(3gfe fg efed|Beed BAAG|
 A3G BAGB|AGAB gfef|(3gfe fg efed|1 Beed BAAG:|2 Beed BAAg||
 |:a3b a2 ga|bagf e3f|(3gfe fg efed|Beed BABd|
 a3b a2 ga|bagf e3f|(3gfe fg efed|1 Beed BABd:|2 Beed BAAG||
% abcbook-tune_id 63ce6af3d659ec893d1cb116
% abcbook-tune_composer_id 
% abcbook-link-0 https://www.youtube.com/watch?v=loTm7g-KkFs
% abcbook-boost 0
% abcbook-difficulty 0
% abcbook-tags good tune book
% abcbook-tablature 
% abcbook-transpose 
% abcbook-tuning 
% abcbook-lastupdated 1675479682709
% abcbook-soundfonts 
% abcbook-repeats 1


